X:147
T:Scrapple from the Apple
C:David Peters (with Kelly Lancaster)
N:TablEdited by Steve Keating
L:1/8
Q:1/4=220
M:4/4
K:F
z8 | z_G =GB AG FD | Ec z2 zB zA | Bf (3dcB AF G_D | z2 zA z2 B2 | zc AG FG zf | 
d2 ze dA B=B | c2 zA BA _A=A | cA Bc z2 ze | D_G =GB AG FD | Ec z3B zA | Bf (3dcB AF G_D | 
z3A zB zA | zc AG FG zf | d3e dA B=B | c3A BA _AD | FC EF z2 eg | ag e_e z=e z_e | 
dA c_d AD GD | F/_G/z {F}G2 {F}G2 {F}G2 | {F}_G2 {F}GD zD AD | z=B, DG FG =Bd | 
B2 AG ED EA | c2 B2 c2 _G2 | B_G F_E =EC z2 | z_E =ED A_G =GD | Ec z2 zB zA | 
Bf (3dcB AF G_D | z2 zA zB zA | zc AG FG zB | d4 ed (3AB=B | c2 zA BA (3A,B,C | 
F2 E2 F4 | a2 af zf de | g2 ge ze cA | f2 fd zd d2 | _dB AB AG ED | zA, B,C _D=D FD | 
EF GA cA Bc | df ag ff ed | cA BB AG ED | A,B, DF AB A_A | GA Bc df ac' | bd fa gf eg | 
ed cA GF FA | z_A =Ac (3_AGF DF | _A/=A/c (3_AGF DF A/=A/c | (3_AGF DF G=A Ac | 
d2 ef ze Ae | z2 AG _EG B_e | _dA de ag _ge | =BA dc _A_G B=A | E_E _A_G _D=B, =E=D | 
=B,D GE _DE _A_G | FA =Bd gf ee | c=B _BA _AD _E=E | GF F_E =EC A,G, | G,G, B,G, G,C G,G, | 
_DG, G,=D zG, FD | zG zD AD DB | zD cD Dc zc | cd f2 c/d/f [f/c/]d/f | [f/c/]d/f [f/c/]d/f [f/c/]d/f [f/c/]d/f | 
gc fg bg fg | fd fc d[fc] [f2c2] | 

